X: 263
T:Rolling Off A Log
% Nottingham Music Database
S:Trad, arr Phil Rowe
M:6/8
K:C
ce|"C"g2^f "F"a2=f|"C"gec cBc|"G7"dBG GAB|"C"cd^d ef^f|
"C"g2^f "F"a2=f|"C"gec cBc|"G7"dBG GAB| [1"C"cge c:|
 [2"C"c2zc2z|:\
K:G
"G"Bdg gfg|Bdg gfg|"D"fga agf|"D"age d^c=c|
K:G
"G"Bdg gfg|Bdg gfg|"D"fga agf| [1"G"g2z"D7"edc:|[2"G"g3 g||<end>
<start>
